packages/blockchain-info-components/src/Images/img/card-warning-icon.svg

<svg fill="none" height="80" viewBox="0 0 84 80" width="84" xmlns="http://www.w3.org/2000/svg" xmlns:xlink="http://www.w3.org/1999/xlink"><clipPath id="a"><path d="m48 4h32v32h-32z"/></clipPath><path d="m60 20h-48c-3.33 0-5.97 2.67-5.97 6l-.03 36c0 3.33 2.67 6 6 6h48c3.33 0 6-2.67 6-6v-36c0-3.33-2.67-6-6-6zm0 42h-48v-18h48zm0-30h-48v-6h48z" fill="#0c6cf2"/><g fill="#fff"><ellipse cx="64" cy="20" rx="20" ry="20"/><ellipse cx="64" cy="20" rx="20" ry="20"/><ellipse cx="64" cy="20" rx="20" ry="20"/><ellipse cx="64" cy="20" rx="20" ry="20"/></g><g clip-path="url(#a)"><path d="m64 4c-8.832 0-16 7.168-16 16s7.168 16 16 16 16-7.168 16-16-7.168-16-16-16zm1.6 27.2h-3.2v-3.2h3.2zm3.312-12.4-1.44 1.472c-1.152 1.168-1.872 2.128-1.872 4.528h-3.2v-.8c0-1.76.72-3.36 1.872-4.528l1.984-2.016c.592-.576.944-1.376.944-2.256 0-1.76-1.44-3.2-3.2-3.2s-3.2 1.44-3.2 3.2h-3.2c0-3.536 2.864-6.4 6.4-6.4s6.4 2.864 6.4 6.4c0 1.408-.576 2.688-1.488 3.6z" fill="#ffa133"/></g></svg>

<svg width="84" height="80" viewBox="0 0 84 80" fill="none" xmlns="http://www.w3.org/2000/svg">
<path d="M60 20H12C8.67 20 6.03 22.67 6.03 26L6 62C6 65.33 8.67 68 12 68H60C63.33 68 66 65.33 66 62V26C66 22.67 63.33 20 60 20ZM60 62H12V44H60V62ZM60 32H12V26H60V32Z" fill="#0C6CF2"/>
<ellipse cx="64" cy="20" rx="20" ry="20" fill="white"/>
<ellipse cx="64" cy="20" rx="20" ry="20" fill="white"/>
<ellipse cx="64" cy="20" rx="20" ry="20" fill="white"/>
<ellipse cx="64" cy="20" rx="20" ry="20" fill="white"/>
<g clip-path="url(#clip0_360_7312)">
<path d="M64 4C55.168 4 48 11.168 48 20C48 28.832 55.168 36 64 36C72.832 36 80 28.832 80 20C80 11.168 72.832 4 64 4ZM65.6 31.2H62.4V28H65.6V31.2ZM68.912 18.8L67.472 20.272C66.32 21.44 65.6 22.4 65.6 24.8H62.4V24C62.4 22.24 63.12 20.64 64.272 19.472L66.256 17.456C66.848 16.88 67.2 16.08 67.2 15.2C67.2 13.44 65.76 12 64 12C62.24 12 60.8 13.44 60.8 15.2H57.6C57.6 11.664 60.464 8.8 64 8.8C67.536 8.8 70.4 11.664 70.4 15.2C70.4 16.608 69.824 17.888 68.912 18.8Z" fill="#FFA133"/>
</g>
<defs>
<clipPath id="clip0_360_7312">
<rect width="32" height="32" fill="white" transform="translate(48 4)"/>
</clipPath>
</defs>
</svg>
